_includes/icons/ios-stack-overflow.svg

<svg fill="#666" height="50" viewBox="0 0 50 50" width="50" xmlns="http://www.w3.org/2000/svg"><path d="m40.34375 1.960938-2.484375.457031 3.328125 18.207031 1.984375-.300781zm-11.28125 4.703125-1.960937 1.414062 10.199218 14.957031 1.746094-1.238281zm-8.710937 8.84375-1.238282 2.195312 15.386719 9.296875 1.164063-1.996094zm-4.1875 9.664062-.535157 2.230469 17.730469 4.492187.640625-1.972656zm-7.164063 3.828125v18.984375l29.902344.015625v-.015625c.03125 0 .097656-18.984375.097656-18.984375h-2v17h-26v-17zm6.171875 4.375-.269531 1.964844 18.097656 1.660156.203125-1.964844zm-.171875 6.625v2l18-.070312v-1.929688z" fill-rule="evenodd"/></svg>

<svg xmlns="http://www.w3.org/2000/svg" viewBox="0 0 50 50" width="50" height="50" fill="#666"><path d="M 40.34375 1.960938 L 37.859375 2.417969 L 41.1875 20.625 L 43.171875 20.324219 Z M 29.0625 6.664063 L 27.101563 8.078125 L 37.300781 23.035156 L 39.046875 21.796875 Z M 20.351563 15.507813 L 19.113281 17.703125 L 34.5 27 L 35.664063 25.003906 Z M 16.164063 25.171875 L 15.628906 27.402344 L 33.359375 31.894531 L 34 29.921875 Z M 9 29 L 9 47.984375 L 38.902344 48 L 38.902344 47.984375 C 38.933594 47.984375 39 29 39 29 L 37 29 L 37 46 L 11 46 L 11 29 Z M 15.171875 33.375 L 14.902344 35.339844 L 33 37 L 33.203125 35.035156 Z M 15 40 L 15 42 L 33 41.929688 L 33 40 Z" fill-rule="evenodd"/></svg>
